X: 23
T:Keel Row. GS.023
M:4/4
L:1/8
Q:180
S:George Spencer m/s, Leeds,1831
R:Schottische
O:England
A:Leeds
N:Title is what appears to be the letter 'K' only:  'Keel Row' written in
N:pencil in a more modern writing.
H:1831
Z:vmp.Cherri Graebe
K:G major
B2 GB c2 Ac | B2 GB AF D2 | B2 GB c2 ec | BGAF G2G2 :||:!
Bddg e2 dc | B2 GB AFED | Bddg e2 dc |1 BGAF G2 G2 :|2 dgfa g2g2 :||
